Obsidian-SemiLight/actions/22s/format-align-vertical-top.svg

<svg viewBox="0 0 22 22" xmlns="http://www.w3.org/2000/svg"><path d="m3 3v1h1 14 1v-1h-1-14zm8 3-3 4h2v6 2 1h2v-1-3-5h2z" fill="#4d4d4d"/></svg>

<svg xmlns="http://www.w3.org/2000/svg" viewBox="0 0 22 22">
  <defs id="defs3051">
    <style type="text/css" id="current-color-scheme">
      .ColorScheme-Text {
        color:#4d4d4d;
      }
      </style>
  </defs>
 <path 
    style="fill:currentColor;fill-opacity:1;stroke:none" 
    d="M 3 3 L 3 4 L 4 4 L 18 4 L 19 4 L 19 3 L 18 3 L 4 3 L 3 3 z M 11 6 L 8 10 L 10 10 L 10 16 L 10 18 L 10 19 L 12 19 L 12 18 L 12 15 L 12 10 L 14 10 L 11 6 z "
    class="ColorScheme-Text"
    />  
</svg>
